assets/Face vomiting/Flat/face_vomiting_flat.svg

<svg width="32" height="32" viewBox="0 0 32 32" fill="none" xmlns="http://www.w3.org/2000/svg">
<path d="M15.9989 29.9978C25.3333 29.9978 29.9978 23.7303 29.9978 15.9989C29.9978 8.26751 25.3333 2 15.9989 2C6.66443 2 2 8.26751 2 15.9989C2 23.7303 6.66443 29.9978 15.9989 29.9978Z" fill="#FFB02E"/>
<path d="M9.44719 12.1055C8.95321 11.8586 8.35254 12.0588 8.10555 12.5528C7.85856 13.0467 8.05878 13.6474 8.55276 13.8944L10.7639 15L8.55276 16.1055C8.05878 16.3525 7.85856 16.9532 8.10555 17.4472C8.35254 17.9412 8.95321 18.1414 9.44719 17.8944L13.4472 15.8944C13.786 15.725 14 15.3787 14 15C14 14.6212 13.786 14.2749 13.4472 14.1055L9.44719 12.1055Z" fill="#402A32"/>
<path d="M22.5528 12.1055C23.0468 11.8586 23.6475 12.0588 23.8945 12.5528C24.1414 13.0467 23.9412 13.6474 23.4472 13.8944L21.2361 15L23.4472 16.1055C23.9412 16.3525 24.1414 16.9532 23.8945 17.4472C23.6475 17.9412 23.0468 18.1414 22.5528 17.8944L18.5528 15.8944C18.214 15.725 18 15.3787 18 15C18 14.6212 18.214 14.2749 18.5528 14.1055L22.5528 12.1055Z" fill="#402A32"/>
<path d="M8 23C8 21.3431 9.34315 20 11 20H21C22.6569 20 24 21.3431 24 23V25C24 26.6569 22.6569 28 21 28H11C9.34315 28 8 26.6569 8 25V23Z" fill="#BB1D80"/>
<path d="M21.0099 23.16C21.1599 25.81 23.7899 28.03 27.0199 28.03C28.1199 28.03 29 29 29 30H3C3 28.89 3.86994 28.03 4.97994 28.03C8.30994 28.03 11.0099 25.68 11.0099 22.92L11 20H21L21.0099 23.16Z" fill="#00D26A"/>
<path d="M7 25.5C7 26.3284 6.32843 27 5.5 27C4.67157 27 4 26.3284 4 25.5C4 24.6716 4.67157 24 5.5 24C6.32843 24 7 24.6716 7 25.5Z" fill="#00D26A"/>
<path d="M28.75 26.5C29.1642 26.5 29.5 26.1642 29.5 25.75C29.5 25.3358 29.1642 25 28.75 25C28.3358 25 28 25.3358 28 25.75C28 26.1642 28.3358 26.5 28.75 26.5Z" fill="#00D26A"/>
<path d="M28 22.5C28 23.3284 27.3284 24 26.5 24C25.6716 24 25 23.3284 25 22.5C25 21.6716 25.6716 21 26.5 21C27.3284 21 28 21.6716 28 22.5Z" fill="#00D26A"/>
</svg>

<svg xmlns="http://www.w3.org/2000/svg" width="32" height="32" fill="none"><path fill="#FFB02E" d="M15.999 29.998c9.334 0 13.999-6.268 13.999-14 0-7.73-4.665-13.998-14-13.998C6.665 2 2 8.268 2 15.999c0 7.731 4.664 13.999 13.999 13.999Z"/><path fill="#402A32" d="M9.447 12.105a1 1 0 0 0-.894 1.79L10.763 15l-2.21 1.105a1 1 0 0 0 .894 1.79l4-2a1 1 0 0 0 0-1.79l-4-2ZM22.553 12.105a1 1 0 0 1 .894 1.79L21.237 15l2.21 1.105a1 1 0 0 1-.894 1.79l-4-2a1 1 0 0 1 0-1.79l4-2Z"/><path fill="#BB1D80" d="M8 23a3 3 0 0 1 3-3h10a3 3 0 0 1 3 3v2a3 3 0 0 1-3 3H11a3 3 0 0 1-3-3v-2Z"/><path fill="#00D26A" d="M21.01 23.16c.15 2.65 2.78 4.87 6.01 4.87 1.1 0 1.98.97 1.98 1.97H3c0-1.11.87-1.97 1.98-1.97 3.33 0 6.03-2.35 6.03-5.11L11 20h10l.01 3.16Z"/><path fill="#00D26A" d="M7 25.5a1.5 1.5 0 1 1-3 0 1.5 1.5 0 0 1 3 0ZM28.75 26.5a.75.75 0 1 0 0-1.5.75.75 0 0 0 0 1.5ZM28 22.5a1.5 1.5 0 1 1-3 0 1.5 1.5 0 0 1 3 0Z"/></svg>
